forward 50
left 20
forward 50
left 20
forward 50
left 20
forward 50
left 20
forward 50
left 20
forward 50
left 20
forward 50
left 20
forward 50
left 20
forward 50
left 20
forward 50
left 20
forward 50
left 20
forward 50
left 20
forward 50
left 20
forward 50
left 20
forward 50
left 20
forward 50
left 20
forward 50
left 20
forward 50
left 20