cs
repeat 12 [ 
    rt 45
    fd 56.56
    lt 135
    fd 40
    rt 90
    rt 30
    
    ]

cs
repeat 12 [ 
    ; rt 45
    ; fd 56.56
    ; lt 135
    ; fd 40
    ; rt 90
    ;fd 40
    fd 10
    pu
    fd 10
    pd 
    fd 10
    pu
    fd 10
    pd
    rt 30
    ]