cs

;定义一条虚线
to dashline
    repeat 5 [
    setwidth 1 fd 10
    setwidth 3 fd 10 
    ] 
end 

;用一条虚线的定义，又定义了一个由4条虚线组成的虚线正方形
to square
    repeat 4 [
    rt 90
    dashline
    ]
end 


;使用上面的定义，直接执行定义
square
penup
fd 150
pendown
square