cs
repeat 4
[repeat 2
[fd 100
 rt 30
 fd 100
 rt 150]
 rt 90]


 cs
 repeat 6
 [repeat 2
 [fd 100
 rt 30
 fd 100
 rt 150]
 rt 60]

 cs
 repeat 8
 [repeat 2
 [fd 100 
 rt 30 
 fd 100
 rt 150]
 rt 45]

  cs
  repeat 10
  [repeat 2
  [fd 100
  rt 30
  fd 100
  rt 150]
  rt 36]